X: 10293
T: The GARLAND OF LOVE
Q: "Not too fast."
%R: air, jig
B: W. Hamilton "Universal Tune-Book" Vol. 1 Glasgow 1844 p.29 #3
S: http://imslp.org/wiki/Hamilton's_Universal_Tune-Book_(Various)
Z: 2016 John Chambers <jc:trillian.mit.edu>
M: 6/8
L: 1/8
K: D
%%slurgraces yes
%%graceslurs yes
% - - - - - - - - - - - - - - - - - - - - - - - - -
A |\
AFA Add | {de}f>ed dcB | AFA A>BA | AdF FEA |\
AFA Add | {ef}f>ed afd | B>cd AdF | E>DE D2 |] A |\
f>ed FAd |
{ce}f>ed FAd | f>ed e<Hac | B<ed cHAA |\
d>cd BGd | AFd AFD | d>cd BGd | AFd AFD | FAd dfHa | A>Bc d2 |]
% - - - - - - - - - - - - - - - - - - - - - - - - -

%%sep 1 1 500
%%sep 1 1 500

